X: 38796
T: Success To The Fleet
R: jig
M: 6/8
K: Gmajor
D|:"G"G2c BGB|g2d BGB|"C"c2e "G"dBG|"A"A3 "D"D3|
"G"G2c BGB|g2d BGB|"Am"A2g "D" faf|"G"g3 G3:|
"G"g2b "D"afd|"C"e2g "G"dBG|"C"c2e "G"dBG|"D"A3 D3|
"G"g2b "D"afd|"C"e2g "G"dBG|"A7"A2g "D"faf|"G"g3 G2z||
"G"g2b "D"afd|"C"e2g "G"dBG|"C"c2e "G"dBG|"D"A3 D3|
"G"G2c BGB|gag f2d|"Am"ege "D" faf|"G"g3 G3||

